X:1
T:[ID 2-24]
T:[ID 2-24]
T:Bezeichnung standardisiert: Menuett Menuet
T:Urheber unbekannt Datum in der hier transkribierten schriftlichen Quelle: 1773
C:Urheber unbekannt
C:Datum in der hier transkribierten schriftlichen Quelle: 1773
L:1/8
M:3/4
K:G
V:1 treble 
V:1
 d4 (3efg | e2 d4 | d2 g2 bg | d2 c2 B2 | A2 c'2 a2 | f2 af g2 | (ed)(dc)(cB) | B2 A4 :: A3 cBd | %9
 c2 B2 z2 | (3BAB (3cBc (3dcd | e2 d2 z2 | d2 c'2 a2 | fgaf g2 | (3edc B2 A2 | A2 G4 :| %16

